X:3
T:Indigo
C:Cliff Stapleton
R:waltz
M:3/4
K:C
A2 F2 D2|EF GA GF|A2 F2 D2|EF G4|
A2 F2 D2|EF GA GF|A2 F2 D2|1 B2 G2 E2:|2 B4|]
FG|A3 F A2|c3 B cd|c2 B2 AB|G4 AB|1 c4 B2|A2 B2 G2|
F2 G2 E2|F4:|2 c3 d cB|A2 B2 G2|F2 G2 E2|D6|]

